X:1
T:Title
%%score { ( 1 3 ) | 2 }
L:1/8
Q:1/4=87
M:6/8
K:F
V:1 treble nm="Grand Piano"
V:3 treble 
V:2 bass 
V:1
 FCF AFA | cdA c3 | cdA [EB]3 | [EB][Ec][EG] A3 | FCF AFA | cdA c3 | %6
w: P.~P.~Bilhorn * * * * *||||||
[M:15/16] [Fd]3/2- [Fd]3[K:bass][K:treble] z3 | [B,EG][CEA]/-[CEA]/[B,CG][A,CF]3/2- [A,CF]3 | %8
w: ||
[M:3/4] [Ac]4 z2 | [GB]6 | [GB]4 z2 | [Ac]6 | [df]4 z2 | [Ac]4 z2 | [EG]4 z2 | [A,F]6 |] %16
w: ||||||||
V:2
 [F,A,C][F,A,][F,A,C] [F,CF][F,A,][F,CF] | [F,A,F][F,B,F][F,CF] [F,A,F]3 | %2
 [F,A,F][F,B,F][F,CF] [C,C]3 | [C,C][C,C][C,C] [F,CF]3 | [F,A,C][F,A,][F,A,C] [F,CF][F,A,][F,CF] | %5
 [F,A,F][F,B,F][F,CF] [F,A,F]3 |[M:15/16] .[B,,B,]3 z3/2 [C,A,]C,/-C,/C, | C,C,/-C,/C,F,3/2- F,3 | %8
[M:3/4] F,F, F,F,[K:treble] BF | C,E, G, .C3 | C,E, G,C [G,C][E,C] | [F,B,]F, F, .F,3 | %12
 [B,,B,]D, F,B,[K:treble] cB | F,F, F,F,[K:treble] GF | C,C, C,C, C,C, | F,6 |] %16
V:3
 x6 | x6 | x6 | x6 | x6 | x6 | %6
[M:15/16] z3/2 z/[K:bass] [=B,,_A,]-[B,,A,]3/2[K:treble][Fc][CFA]/-[CFA]/[=A,F] | x15/2 | %8
[M:3/4] CC CC dA | CC .C2 z2 | CC .C2 [ce][Bd] | z C C .C3 | z B, .B,2 ed | CC CC BA | %14
 CC CC [CFA][B,EG] | x6 |] %16

